X: 12022
T: Erddigan Cadwallon
R: polka
M: 2/4
K: Dminor
|:A|d>^c de|f2 e/f/g|a>f ed|^cA BG|A2 d>^c|d3:|
|:e|f>g af|ef ge|f2 ed|^cA BG|A2 d>^c|d3:|

